svg/u1f60d.svg

<svg viewBox="0 0 128 128" xmlns="http://www.w3.org/2000/svg">
  <g id="facial_expressions">
    <radialGradient id="face_1_" cx="63.6" cy="512.9" gradientTransform="matrix(1 0 0 1 0 -450)" gradientUnits="userSpaceOnUse" r="56.9597">
      <stop offset="0.5" stop-color="#FDE030"/>
      <stop offset="0.92" stop-color="#F7C02B"/>
      <stop offset="1" stop-color="#F4A223"/>
    </radialGradient>
    <path id="face" d="M63.6,118.8c-27.9,0-58-17.5-58-55.9S35.7,7,63.6,7c15.5,0,29.8,5.1,40.4,14.4 c11.5,10.2,17.6,24.6,17.6,41.5s-6.1,31.2-17.6,41.4C93.4,113.6,79,118.8,63.6,118.8z" fill="url(#face_1_)"/>
    <path d="M111.49,29.67c5.33,8.6,8.11,18.84,8.11,30.23c0,16.9-6.1,31.2-17.6,41.4 c-10.6,9.3-25,14.5-40.4,14.5c-18.06,0-37-7.35-48.18-22.94c10.76,17.66,31,25.94,50.18,25.94c15.4,0,29.8-5.2,40.4-14.5 c11.5-10.2,17.6-24.5,17.6-41.4C121.6,50.16,118.13,38.84,111.49,29.67z" fill="#EB8F00"/>
    <g id="smiling-face-with-heart-eyes">
      <path id="mouth" d="M64.4,83.3c-3.58,0-7.13-0.6-10.5-1.8c-4.15-1.43-8.66,0.78-10.09,4.92 c-0.81,2.34-0.48,4.92,0.89,6.98c4.3,6.6,11.1,10.2,19.7,10.2s15.4-3.6,19.7-10.2c2.43-3.65,1.43-8.58-2.22-11.01 c-2.06-1.37-4.64-1.7-6.98-0.89C71.53,82.7,67.98,83.3,64.4,83.3z" fill="#422B0D"/>
      <g id="blush">
        <radialGradient id="SVGID_1_" cx="66.2449" cy="-1690.4537" gradientTransform="matrix(0.98 0 0 0.88 -30.72 1552.7098)" gradientUnits="userSpaceOnUse" r="19.4611">
          <stop offset="0" stop-color="#ED7770"/>
          <stop offset="0.9" stop-color="#ED7770" stop-opacity="0"/>
        </radialGradient>
        <ellipse cx="34.2" cy="72.7" enable-background="new " fill="url(#SVGID_1_)" opacity="0.8" rx="17.5" ry="16.5"/>
        <radialGradient id="SVGID_2_" cx="123.12" cy="-2397.5901" gradientTransform="matrix(1 0 0 -1 0 130)" gradientUnits="userSpaceOnUse" r="19.46">
          <stop offset="0" stop-color="#ED7770"/>
          <stop offset="0.9" stop-color="#ED7770" stop-opacity="0"/>
        </radialGradient>
        <ellipse cx="94.6" cy="72.7" enable-background="new " fill="url(#SVGID_2_)" opacity="0.8" rx="17.5" ry="16.5"/>
      </g>
    </g>
    <path d="M107.59,34.37c-8.21-2.31-14.24,4.4-14.24,4.4s-0.7-7.61-7.72-10c-8.42-2.89-17.31,1.71-17.84,13.64 C67.19,56,85.17,73.84,85.17,73.84s22.32-6,29.63-18.72C120.75,44.77,113.8,36.11,107.59,34.37z" fill="#F44336"/>
    <path d="M107.59,34.37c-1.01-0.27-2.05-0.39-3.09-0.37c2.94,1.97,5.27,4.72,6.72,7.94 c1.41,3.39,1.78,7.77-0.9,13c-5.81,11.37-23.7,18.41-25,18.9c1.63-0.46,22.49-6.46,29.52-18.69 C120.75,44.77,113.8,36.11,107.59,34.37z" fill="#C62828"/>
    <path d="M93.34,40c-0.06-1.04-0.22-2.08-0.46-3.1c-0.58-2.94-2.4-5.49-5-7c-1.78-1.04-3.75-1.7-5.79-1.95 c0,0,3,0.91,5.14,5.06c1.09,2.18,1.74,4.56,1.9,6.99c-0.01,0.89,0.15,1.76,0.47,2.59c0.36,0.83,1.24,1.32,2.14,1.18 C93.11,43.42,93.41,41.71,93.34,40z" fill="#C62828"/>
    <path d="M73.9,35.23c1.87-2.32,4.94-4.53,7.88-2.49c1.56,1.09,1.58,4.18-0.33,5.57 c-3.22,2.36-3.37,3.91-3.73,5.21c-0.44,1.55-0.72,3.4-2.13,4.18s-2.65,0-3.39-2.23C70.94,41.99,71.58,38.11,73.9,35.23z" fill="#FF847A"/>
    <path d="M40.72,28.57c-8.11,2.63-9.41,11.56-9.41,11.56s-4.8-6-12-4.06C10.72,38.33,5.87,47.09,12,57.3 C19.1,69,43.94,73.85,43.94,73.85s15.25-17.36,14.29-32C57.44,29.93,46.85,26.58,40.72,28.57z" fill="#F44336"/>
    <path d="M40.72,28.57c-0.99,0.32-1.94,0.78-2.81,1.36c3.54,0.01,7,1.01,10,2.89c3.06,2,5.79,5.48,6.47,11.33 C55.85,56.84,44.85,72.61,44,73.76c1.11-1.28,15.14-17.84,14.22-31.92C57.44,29.93,46.85,26.58,40.72,28.57z" fill="#C62828"/>
    <path d="M32,41.18c-0.62-0.85-1.32-1.63-2.1-2.33c-2.1-2.14-5.01-3.28-8-3.12c-2.05,0.12-4.06,0.65-5.9,1.58 c0,0,3-0.91,7.08,1.37c2.13,1.23,3.98,2.88,5.46,4.84c0.48,0.75,1.1,1.39,1.83,1.9c0.76,0.49,1.76,0.4,2.43-0.21 C33.69,44.13,33,42.55,32,41.18z" fill="#C62828"/>
    <path d="M13.2,48c0.04-0.84,0.19-1.67,0.44-2.47c0.41-1.68,1.6-3.07,3.19-3.74 c1.53-0.48,3.65-0.14,4.47,1.39c0.73,1.36,0.2,3-0.2,4.5c-0.36,1.72-0.56,3.48-0.6,5.24c0.01,1.44-1.14,2.61-2.58,2.63 c-1.36,0-2.42-1.18-3.18-2.31C13.68,51.7,13.14,49.87,13.2,48z" fill="#FF847A"/>
  </g>
</svg>

<svg viewBox="0 0 128 128" xmlns="http://www.w3.org/2000/svg">
  <defs>
    <radialGradient id="face_1_" cx="63.6" cy="62.9" gradientUnits="userSpaceOnUse" r="56.9597">
      <stop offset="0.5" stop-color="#FDE030"/>
      <stop offset="0.92" stop-color="#F7C02B"/>
      <stop offset="1" stop-color="#F4A223"/>
    </radialGradient>
    <radialGradient id="SVGID_1_" cx="34.897961" cy="73.989255" gradientTransform="matrix(0.98 0 0 0.88 0 0)" gradientUnits="userSpaceOnUse" r="19.4611">
      <stop offset="0" stop-color="#ED7770"/>
      <stop offset="0.9" stop-color="#ED7770" stop-opacity="0"/>
    </radialGradient>
    <radialGradient id="SVGID_2_" cx="123.12" cy="-2527.5901" gradientTransform="matrix(1 0 0 -1 0 0)" gradientUnits="userSpaceOnUse" r="19.46">
      <stop offset="0" stop-color="#ED7770"/>
      <stop offset="0.9" stop-color="#ED7770" stop-opacity="0"/>
    </radialGradient>
  </defs>
  <path id="face" d="M63.6,118.8 C35.7,118.8 5.6,101.3 5.6,62.9 C5.6,24.5 35.7,7 63.6,7 C79.1,7 93.4,12.1 104,21.4 C115.5,31.6 121.6,46 121.6,62.9 C121.6,79.8 115.5,94.1 104,104.3 C93.4,113.6 79,118.8 63.6,118.8 Z" fill="url(#face_1_)"/>
  <path d="M111.49,29.67 C116.82,38.27 119.6,48.51 119.6,59.9 C119.6,76.8 113.5,91.1 102,101.3 C91.4,110.6 77,115.8 61.6,115.8 C43.54,115.8 24.6,108.45 13.42,92.86 C24.18,110.52 44.42,118.8 63.6,118.8 C79,118.8 93.4,113.6 104,104.3 C115.5,94.1 121.6,79.8 121.6,62.9 C121.6,50.16 118.13,38.84 111.49,29.67 Z" fill="#EB8F00"/>
  <path id="mouth" d="M64.4,83.3 C60.82,83.3 57.27,82.7 53.9,81.5 C49.75,80.07 45.24,82.28 43.81,86.42 C43,88.76 43.33,91.34 44.7,93.4 C49,100 55.8,103.6 64.4,103.6 C73,103.6 79.8,100 84.1,93.4 C86.53,89.75 85.53,84.82 81.88,82.39 C79.82,81.02 77.24,80.69 74.9,81.5 C71.53,82.7 67.98,83.3 64.4,83.3 Z" fill="#422B0D"/>
  <path d="M51.7,72.7 A17.5 16.5 0 1 1 16.7,72.7 A17.5 16.5 0 1 1 51.7,72.7 Z" fill="url(#SVGID_1_)" opacity="0.8"/>
  <path d="M112.1,72.7 A17.5 16.5 0 1 1 77.1,72.7 A17.5 16.5 0 1 1 112.1,72.7 Z" fill="url(#SVGID_2_)" opacity="0.8"/>
  <path d="M107.59,34.37 C99.38,32.06 93.35,38.77 93.35,38.77 C93.35,38.77 92.65,31.16 85.63,28.77 C77.21,25.88 68.32,30.48 67.79,42.41 C67.19,56 85.17,73.84 85.17,73.84 C85.17,73.84 107.49,67.84 114.8,55.12 C120.75,44.77 113.8,36.11 107.59,34.37 Z" fill="#F44336"/>
  <path d="M107.59,34.37 C106.58,34.1 105.54,33.98 104.5,34 C107.44,35.97 109.77,38.72 111.22,41.94 C112.63,45.33 113,49.71 110.32,54.94 C104.51,66.31 86.62,73.35 85.32,73.84 C86.95,73.38 107.81,67.38 114.84,55.15 C120.75,44.77 113.8,36.11 107.59,34.37 Z" fill="#C62828"/>
  <path d="M93.34,40 C93.28,38.96 93.12,37.92 92.88,36.9 C92.3,33.96 90.48,31.41 87.88,29.9 C86.1,28.86 84.13,28.2 82.09,27.95 C82.09,27.95 85.09,28.86 87.23,33.01 C88.32,35.19 88.97,37.57 89.13,40 C89.12,40.89 89.28,41.76 89.6,42.59 C89.96,43.42 90.84,43.91 91.74,43.77 C93.11,43.42 93.41,41.71 93.34,40 Z" fill="#C62828"/>
  <path d="M73.9,35.23 C75.77,32.91 78.84,30.7 81.78,32.74 C83.34,33.83 83.36,36.92 81.45,38.31 C78.23,40.67 78.08,42.22 77.72,43.52 C77.28,45.07 77,46.92 75.59,47.7 C74.18,48.48 72.94,47.7 72.2,45.47 C70.94,41.99 71.58,38.11 73.9,35.23 Z" fill="#FF847A"/>
  <path d="M40.72,28.57 C32.61,31.2 31.31,40.13 31.31,40.13 C31.31,40.13 26.51,34.13 19.31,36.07 C10.72,38.33 5.87,47.09 12,57.3 C19.1,69 43.94,73.85 43.94,73.85 C43.94,73.85 59.19,56.49 58.23,41.85 C57.44,29.93 46.85,26.58 40.72,28.57 Z" fill="#F44336"/>
  <path d="M40.72,28.57 C39.73,28.89 38.78,29.35 37.91,29.93 C41.45,29.94 44.91,30.94 47.91,32.82 C50.97,34.82 53.7,38.3 54.38,44.15 C55.85,56.84 44.85,72.61 44,73.76 C45.11,72.48 59.14,55.92 58.22,41.84 C57.44,29.93 46.85,26.58 40.72,28.57 Z" fill="#C62828"/>
  <path d="M32,41.18 C31.38,40.33 30.68,39.55 29.9,38.85 C27.8,36.71 24.89,35.57 21.9,35.73 C19.85,35.85 17.84,36.38 16,37.31 C16,37.31 19,36.4 23.08,38.68 C25.21,39.91 27.06,41.56 28.54,43.52 C29.02,44.27 29.64,44.91 30.37,45.42 C31.13,45.91 32.13,45.82 32.8,45.21 C33.69,44.13 33,42.55 32,41.18 Z" fill="#C62828"/>
  <path d="M13.2,48 C13.24,47.16 13.39,46.33 13.64,45.53 C14.05,43.85 15.24,42.46 16.83,41.79 C18.36,41.31 20.48,41.65 21.3,43.18 C22.03,44.54 21.5,46.18 21.1,47.68 C20.74,49.4 20.54,51.16 20.5,52.92 C20.51,54.36 19.36,55.53 17.92,55.55 C16.56,55.55 15.5,54.37 14.74,53.24 C13.68,51.7 13.14,49.87 13.2,48 Z" fill="#FF847A"/>
</svg>
